X: 10
T:Seneca Square Dance
T:Waiting for the Federals
R:March
M:4/4
L:1/4
K:G
"G"B2 BA/B/|dB B/A/G|B2 d>B|"D7"A/B/A/G/ ED|"G"B2 BA/B/|dB B/A/G|
"D7"A/B/A/G/ EF|"G"G2 G2::"G"g2 g>e|d B2 B/d/|g2 g/f/g/a/|
"Em"  b/e/-e/e/ e>f|"G"g/a/b/a/ g>e|d/g/e/d/B/A/G|"D7"A/B/A/G/ EF|"G"G2 G2:|]
